sleep-off.svg

<svg fill="currentColor" viewBox="0 0 24 24"><path d="M2 5.27 3.28 4 20 20.72 18.73 22l-6-6H9v-2l.79-.94zM23 12h-6v-2l3.39-4H17V4h6v2l-3.38 4H23zM9.82 8H15v2l-1.46 1.72zM7 20H1v-2l3.39-4H1v-2h6v2l-3.38 4H7z"/></svg>

<svg  viewBox="0 0 24 24" fill="currentColor"><path  d="M2,5.27L3.28,4L20,20.72L18.73,22L12.73,16H9V14L9.79,13.06L2,5.27M23,12H17V10L20.39,6H17V4H23V6L19.62,10H23V12M9.82,8H15V10L13.54,11.72L9.82,8M7,20H1V18L4.39,14H1V12H7V14L3.62,18H7V20Z"/></svg>
